libs/ui/packages/crypto-icons/src/svg/BTCZ.svg

<svg width="24" height="24" viewBox="0 0 24 24" fill="none">
<path d="M12 20.25C7.4505 20.25 3.75 16.5495 3.75 12C3.75 7.4505 7.45275 3.75 12 3.75C16.5472 3.75 20.25 7.45275 20.25 12C20.25 12.7515 20.148 13.5 19.9462 14.2245C19.8956 14.391 19.7819 14.5311 19.6293 14.6148C19.4766 14.6985 19.2973 14.7191 19.1297 14.6723C18.9621 14.6254 18.8195 14.5148 18.7324 14.3641C18.6453 14.2134 18.6207 14.0346 18.6637 13.866C18.8325 13.2585 18.9188 12.6307 18.918 12C18.918 8.1855 15.8145 5.082 12 5.082C8.1855 5.082 5.082 8.1855 5.082 12C5.082 15.8145 8.1855 18.918 12 18.918C12.714 18.918 13.4242 18.8085 14.1045 18.5917C14.1885 18.5628 14.2774 18.5509 14.366 18.5568C14.4546 18.5627 14.5412 18.5863 14.6206 18.6262C14.6999 18.666 14.7705 18.7214 14.8282 18.7889C14.8859 18.8565 14.9295 18.9349 14.9564 19.0195C14.9833 19.1042 14.993 19.1934 14.9849 19.2818C14.9769 19.3703 14.9512 19.4562 14.9094 19.5346C14.8676 19.613 14.8106 19.6822 14.7417 19.7382C14.6727 19.7942 14.5933 19.8359 14.508 19.8608C13.6972 20.1194 12.8511 20.2508 12 20.25ZM14.5312 11.9805C14.8162 12.219 15.0082 12.564 15.1073 13.0147C15.1718 13.2743 15.1673 13.5465 15.0953 13.8038C15.0233 14.0423 14.8964 14.2606 14.7247 14.4412C14.5369 14.6368 14.3166 14.7984 14.0737 14.919C13.8172 15.0517 13.7565 15.0945 13.4505 15.162L13.26 15.2077C13.2035 15.2215 13.1547 15.2568 13.1239 15.3062C13.0932 15.3556 13.0831 15.415 13.0958 15.4717L13.2083 15.9757C13.2145 16.0043 13.2151 16.0337 13.21 16.0625C13.2049 16.0912 13.1942 16.1187 13.1784 16.1433C13.1627 16.1679 13.1422 16.1891 13.1183 16.2058C13.0943 16.2225 13.0673 16.2343 13.0387 16.2405L12.531 16.353C12.5025 16.3593 12.4731 16.3599 12.4444 16.3549C12.4157 16.3498 12.3883 16.3391 12.3637 16.3235C12.3391 16.3078 12.3178 16.2874 12.3011 16.2635C12.2844 16.2397 12.2726 16.2127 12.2662 16.1842L12.1553 15.684C12.1489 15.6555 12.1371 15.6286 12.1204 15.6047C12.1037 15.5808 12.0824 15.5605 12.0578 15.5448C12.0332 15.5291 12.0058 15.5184 11.9771 15.5134C11.9484 15.5083 11.919 15.5089 11.8905 15.5152L10.5157 15.8197C10.3755 15.8505 10.2288 15.8244 10.1078 15.747C9.98689 15.6697 9.90161 15.5475 9.87075 15.4072L8.63325 9.813C8.60245 9.67277 8.6286 9.52605 8.70596 9.4051C8.78331 9.28414 8.90553 9.19886 9.04575 9.168L10.4205 8.8635C10.449 8.8572 10.4759 8.84535 10.4998 8.82863C10.5237 8.81192 10.544 8.79066 10.5597 8.76607C10.5754 8.74149 10.5861 8.71406 10.5911 8.68535C10.5962 8.65664 10.5956 8.62721 10.5893 8.59875L10.4767 8.09475C10.4706 8.06624 10.4701 8.03678 10.4753 8.00808C10.4805 7.97937 10.4913 7.95198 10.5072 7.92746C10.523 7.90294 10.5435 7.88178 10.5675 7.86519C10.5914 7.84859 10.6185 7.83689 10.647 7.83075L11.1547 7.71825C11.1832 7.71195 11.2126 7.71131 11.2414 7.71638C11.2701 7.72145 11.2975 7.73212 11.3221 7.74779C11.3467 7.76346 11.3679 7.78382 11.3846 7.80771C11.4013 7.83159 11.4132 7.85854 11.4195 7.887L11.5305 8.388C11.5434 8.44535 11.5785 8.49524 11.6281 8.52673C11.6778 8.55823 11.7379 8.56875 11.7952 8.556L12.2153 8.4645C12.4328 8.4135 12.66 8.41725 12.8752 8.47575C13.0807 8.532 13.2727 8.628 13.44 8.7585C13.7798 9.02984 14.0165 9.40941 14.1105 9.834C14.181 10.149 14.1667 10.4775 14.07 10.7865C13.9697 11.107 13.7678 11.3861 13.4948 11.5815C13.8743 11.5995 14.2373 11.739 14.5312 11.9805ZM10.4587 10.7827L10.5323 11.1022C10.5631 11.2425 10.6484 11.3647 10.7693 11.442C10.8903 11.5194 11.037 11.5455 11.1772 11.5147L12.1575 11.2972C12.3233 11.262 12.4702 11.1666 12.57 11.0295C12.6757 10.8885 12.7028 10.6995 12.6503 10.4617C12.6015 10.2427 12.5062 10.0867 12.3652 9.99375C12.299 9.94821 12.2239 9.91707 12.1448 9.90234C12.0658 9.88761 11.9845 9.88963 11.9062 9.90825L10.8713 10.137C10.8017 10.1523 10.7359 10.1811 10.6776 10.2218C10.6192 10.2626 10.5695 10.3144 10.5311 10.3744C10.4928 10.4343 10.4667 10.5013 10.4543 10.5714C10.4419 10.6414 10.4434 10.7133 10.4587 10.7827ZM13.3905 13.608H13.392C13.4431 13.5254 13.4767 13.4332 13.4909 13.3371C13.5051 13.2411 13.4995 13.1431 13.4745 13.0492C13.4374 12.8575 13.3329 12.6853 13.1798 12.564C13.1116 12.5074 13.0312 12.4673 12.9449 12.447C12.8586 12.4267 12.7688 12.4267 12.6825 12.447L11.4405 12.7222C11.3003 12.7531 11.1781 12.8384 11.1007 12.9593C11.0234 13.0803 10.9972 13.227 11.028 13.3672L11.115 13.7625C11.1303 13.832 11.1591 13.8978 11.1998 13.9562C11.2406 14.0145 11.2924 14.0643 11.3524 14.1026C11.4123 14.1409 11.4793 14.167 11.5494 14.1794C11.6194 14.1919 11.6913 14.1904 11.7607 14.175L12.9375 13.9147C13.03 13.8974 13.1179 13.8612 13.1959 13.8084C13.2738 13.7556 13.34 13.6874 13.3905 13.608ZM15.864 17.6452L17.0138 16.2712C17.0392 16.2409 17.0554 16.2039 17.0606 16.1647C17.0657 16.1254 17.0595 16.0855 17.0427 16.0497C17.0259 16.0138 16.9993 15.9835 16.9658 15.9623C16.9324 15.9411 16.8936 15.9299 16.854 15.93H16.08C16.0527 15.9301 16.0256 15.9248 16.0003 15.9144C15.975 15.904 15.952 15.8887 15.9326 15.8694C15.9132 15.8501 15.8979 15.8272 15.8874 15.8019C15.8769 15.7767 15.8715 15.7496 15.8715 15.7222V15.5602C15.8715 15.4455 15.9645 15.3525 16.08 15.3525H17.8485C17.9036 15.3525 17.9564 15.3744 17.9954 15.4133C18.0344 15.4523 18.0563 15.5051 18.0563 15.5602V15.7732C18.0562 15.8201 18.0404 15.8656 18.0112 15.9022L16.911 17.2837C16.8865 17.3143 16.8712 17.3512 16.8668 17.3902C16.8624 17.4291 16.8691 17.4685 16.8861 17.5037C16.9031 17.539 16.9298 17.5688 16.963 17.5896C16.9962 17.6104 17.0346 17.6213 17.0737 17.6212H17.862C17.9768 17.6212 18.0705 17.7142 18.0705 17.829V17.9902C18.0705 18.0176 18.0651 18.0447 18.0546 18.0699C18.0441 18.0952 18.0288 18.1181 18.0094 18.1374C17.99 18.1567 17.967 18.172 17.9417 18.1824C17.9164 18.1928 17.8893 18.1981 17.862 18.198H16.023C15.9679 18.198 15.9151 18.1761 15.8761 18.1372C15.8371 18.0982 15.8152 18.0453 15.8153 17.9902V17.7802C15.8151 17.7309 15.8324 17.6831 15.864 17.6452Z" fill="#F8C24A"/>
</svg>

<svg width="24" height="24" viewBox="0 0 24 24" fill="none"><path fill="#f8c24a" d="M12 20.25c-4.55 0-8.25-3.7-8.25-8.25S7.453 3.75 12 3.75s8.25 3.703 8.25 8.25c0 .752-.102 1.5-.304 2.225a.666.666 0 0 1-1.282-.359A6.926 6.926 0 0 0 12 5.082 6.926 6.926 0 0 0 5.082 12a6.926 6.926 0 0 0 9.023 6.592.668.668 0 0 1 .804.943.67.67 0 0 1-.401.326c-.81.258-1.657.39-2.508.389m2.531-8.27q.428.359.576 1.035c.065.26.06.531-.012.789a1.6 1.6 0 0 1-.37.637 2.4 2.4 0 0 1-.651.478c-.257.133-.317.175-.623.243l-.191.046a.223.223 0 0 0-.164.264l.112.504a.22.22 0 0 1-.09.23.2.2 0 0 1-.08.035l-.507.112a.22.22 0 0 1-.23-.09.2.2 0 0 1-.035-.079l-.11-.5a.22.22 0 0 0-.179-.17.2.2 0 0 0-.087.001l-1.374.305a.54.54 0 0 1-.645-.413L8.633 9.813a.54.54 0 0 1 .413-.645l1.375-.304a.22.22 0 0 0 .168-.265l-.112-.504a.22.22 0 0 1 .09-.23.2.2 0 0 1 .08-.034l.508-.113a.223.223 0 0 1 .264.169l.111.501a.22.22 0 0 0 .265.168l.42-.091c.218-.051.445-.048.66.01.206.057.398.153.565.284a1.89 1.89 0 0 1 .63 2.028c-.1.32-.302.6-.575.794.38.019.742.158 1.036.4m-4.072-1.197.073.32a.54.54 0 0 0 .645.412l.98-.218a.7.7 0 0 0 .413-.268q.16-.21.08-.567-.073-.33-.285-.468a.57.57 0 0 0-.459-.086l-1.035.229a.54.54 0 0 0-.412.646m2.932 2.825a.7.7 0 0 0 .083-.559.82.82 0 0 0-.295-.485.57.57 0 0 0-.498-.117l-1.242.275a.54.54 0 0 0-.412.645l.087.395a.543.543 0 0 0 .646.413l1.177-.26a.7.7 0 0 0 .452-.307m2.473 4.037 1.15-1.374a.208.208 0 0 0-.048-.309.2.2 0 0 0-.112-.032h-.774a.21.21 0 0 1-.208-.208v-.162c0-.115.092-.208.208-.208h1.769a.21.21 0 0 1 .207.208v.213a.2.2 0 0 1-.045.13l-1.1 1.38a.208.208 0 0 0 .163.338h.788c.115 0 .209.093.209.208v.161a.207.207 0 0 1-.209.208h-1.839a.21.21 0 0 1-.208-.208v-.21a.2.2 0 0 1 .049-.135"/></svg>
